X:352
T:Spindle Shanks
T:Mulqueen's
R:reel
H:Usually played in D, #613
D:Conal O'Grada: Top of Coom
Z:id:hn-reel-352
M:C|
K:G
BdAc BG~G2|BGdc BG~G2|B2Ac BG~G2|1 (3Bcd ef gedc:|2 (3Bcd ef g2fg||
~a3g abag|fgab c'2bg|~a3g abag|fdef g2fg|
~a3g abag|fgab c'2bc'|d'b~b2 c'a~a2|gbaf gedc||
